X:1
T:Title
%%score { ( 1 4 ) | ( 2 3 5 ) }
L:1/8
Q:1/4=100
M:4/4
K:Eb
V:1 treble nm="Grand Piano"
V:4 treble 
V:2 bass 
V:3 bass 
V:5 bass 
V:1
 [GB]4 [_G=A]2 [=GB]2 | [_Gc]4 [=GB]2 E2 | F2 G2 B2 A2 | G4 F4 | B4 [Gc]2 [G_d]2 | d4 B2 F2 | %6
w: J.~Lincoln~Hall * *||||||
 F2 e2 d2 c2 | [DB]8 | A4 G2 A2 | G4 F2 F2 | B2 c2 B2 A2 | [EG]8 | [Ge]4 [_Gd]2 [Gc]2 | %13
w: |||||||
 [GB]2 G2 B2 A2 | G4 z2 D2 | [G,E]6 z2 | [B,GB]4 [C_G=A]2 [B,=GB]2 | [_Gc]4 [=GB]2 E2 | %18
w: |||||
 F2 G2 B2 A2 | G4 F4 | B4 [Gc]2 [G_d]2 | d4 B2 F2 | F2 e2 d2 c2 | [DB]8 | A4 G2 A2 | G4 F2 F2 | %26
w: ||||||||
 B2 c2 B2 A2 | [EG]8 | [Ge]4 [_Gd]2 [Gc]2 | [GB]2 G2 B2 A2 | G4 z2 D2 | [G,E]6 z2 | %32
w: ||||||
 [B,EG]4 [B,DG]2 [A,DF]2 | [G,E]4 [EB]4 | [Ec]2 [DB]2 [EB]2 [FA]2 | G8 | G4 z4 | [Ec]4 B4 | %38
w: ||||||
 A2 F2 G2 [E=A]2 | [DB]8 | [EG]4 z4 | z4 B4 | [CEB]2 [EA]2 [C=EA]2 [B,EG]2 | [A,F]8 | %44
w: ||||||
 [B,DF]4 [B,EG]2 [B,DA]2 | [B,EG]2 [A,DF]2 [G,E]2 [CFA]2 | [EG]4 z4 | [G,E]8 |] %48
w: ||||
V:2
 [E,B,]4 [E,C]2 [E,B,]2 | [E,=A,]4 [E,B,]2 [G,B,]2 | [A,CE]2 [G,C=E]2 [F,CF]2 [A,CF]2 | E4 D4 | %4
 [E,G,E]4 [E,B,]2 [=E,B,]2 | [F,B,F]4 [F,B,D]2 [F,B,D]2 | [F,=A,E]2 [F,A,G]2 [F,G,F]2 [F,A,E]2 | %7
 [B,,B,]8 | [CE]4 [B,E]2 [CE]2 | [B,D]4 [A,D]2[K:bass] [A,D]2 | [G,E]2 [A,E]2 [G,E]2 [F,D]2 | %11
 E,2 G,2 B,4 | [E,B,]4 [E,=A,]2 [E,A,]2 | [E,B,]2[K:treble] [G,_DE]2 [A,CF]2 [A,=B,F]2 | %14
 [B,E]6 z2 | E,6 z2 | E,4 E,2 E,2 | [E,=A,]4 [E,B,]2 [G,B,]2 | [A,CE]2 [G,C=E]2 [F,CF]2 [A,CF]2 | %19
 E4 z4 | [E,G,E]4 [E,B,]2 [=E,B,]2 | [F,B,F]4 [F,B,D]2 [F,B,D]2 | %22
 [F,=A,E]2 [F,A,G]2 [F,G,F]2 [F,A,E]2 | [B,,B,]8 | [CE]4 [B,E]2 [CE]2 | %25
 [B,D]4 [A,D]2[K:bass] [A,D]2 | [G,E]2 [A,E]2 [G,E]2 [F,D]2 | E,2 G,2 B,4 | %28
 [E,B,]4 [E,=A,]2 [E,A,]2 | [E,B,]2[K:treble] [G,_DE]2 [A,CF]2 [A,=B,F]2 | [B,E]6 z2 | E,6 z2 | %32
 E,4 B,,2 B,,2 | C,4 [G,,E,]4 | [A,,E,]2 [B,,B,]2 [C,B,]2 [D,B,]2 | [E,B,E]8 | [B,E]4 z4 | %37
 [A,,A,]4 [E,G,E]4 | [F,CE]2 [D,B,]2 [E,B,E]2 [C,E,]2 | [B,,F,]8 | E,4 z4 | C,4 z2 D2 | z2 C2 z4 | %43
 F,8 | A,4 G,2 F,2 | E,2 B,,2 C,2 A,,2 | B,,4 z2 A,2 | E,8 |] %48
V:3
 x8 | x8 | x8 | B,8 | x8 | x8 | x8 | x8 | x8 | x6[K:bass] x2 | x8 | x8 | x8 | x2[K:treble] x6 | %14
 z4 z2 A,2 | x8 | x8 | x8 | x8 | B,4- [B,D]4 | x8 | x8 | x8 | x8 | x8 | x6[K:bass] x2 | x8 | x8 | %28
 x8 | x2[K:treble] x6 | z4 z2 A,2 | x8 | x8 | x8 | x8 | x8 | E,2 z2 [C,A,]2 [B,,G,]2 | x8 | x8 | %39
 x8 | z2 A,2 B,,2 B,,2 | z4 G,,4 | z2 z B,, C,2 C,2 | x8 | x8 | x8 | z4 B,,4 | x8 |] %48
V:4
 x8 | x8 | x8 | x8 | x8 | x8 | x8 | x8 | x8 | x8 | x8 | x8 | x8 | x8 | z4 F4 | x8 | x8 | x8 | x8 | %19
 x8 | x8 | x8 | x8 | x8 | x8 | x8 | x8 | x8 | x8 | x8 | z4 F4 | x8 | x8 | x8 | x8 | x8 | %36
 z2 D,2 [EA]2 [EB]2 | x8 | x8 | x8 | G,2 z2 [B,DG]2 [A,DF]2 | [G,E]4 E2 z2 | x8 | x8 | x8 | x8 | %46
 B,4- [B,D-F-]2 [DF]2 | x8 |] %48
V:5
 x8 | x8 | x8 | x8 | x8 | x8 | x8 | x8 | x8 | x6[K:bass] x2 | x8 | x8 | x8 | x2[K:treble] x6 | %14
 z4 B,,4 | x8 | x8 | x8 | x8 | x8 | x8 | x8 | x8 | x8 | x8 | x6[K:bass] x2 | x8 | x8 | x8 | %29
 x2[K:treble] x6 | z4 B,,4 | x8 | x8 | x8 | x8 | x8 | x8 | x8 | x8 | x8 | x8 | x8 | A,,4 z4 | x8 | %44
 x8 | x8 | x8 | x8 |] %48

